assets/img/products-and-docs/ic_full_screen_back.svg

<svg width="28" height="28" xmlns="http://www.w3.org/2000/svg">
 <!-- Generator: sketchtool 3.8.2 (29753) - http://www.bohemiancoding.com/sketch -->
 <title>30769FA6-0BBB-4CA2-AB91-C806B1891CF8</title>
 <desc>Created with sketchtool.</desc>

 <g>
  <title>background</title>
  <rect fill="none" id="canvas_background" height="402" width="582" y="-1" x="-1"/>
 </g>
 <g>
  <title>Layer 1</title>
  <g fill-rule="evenodd" fill="none" id="-Stylesheet-+-Mobile">
   <g fill="#B7C9D3" id="Assets">
    <g id="ic_full_screen_exit">
     <path fill="#ffffff" id="ic_full_exit" d="m9,16l0,1l2.293,0l-3.647,3.646l0.708,0.707l3.646,-3.647l0,2.294l1,0l0,-4l-4,0zm7,-4.708l0,-2.292l-1,0l0,3l0,1l1,0l2.999,0l0,-1l-2.292,0l3.646,-3.647l-0.706,-0.707l-3.647,3.646z"/>
    </g>
   </g>
  </g>
 </g>
</svg>

<?xml version="1.0" encoding="UTF-8" standalone="no"?>
<svg width="28px" height="28px" viewBox="0 0 28 28" version="1.1" xmlns="http://www.w3.org/2000/svg" xmlns:xlink="http://www.w3.org/1999/xlink">
    <!-- Generator: sketchtool 3.8.2 (29753) - http://www.bohemiancoding.com/sketch -->
    <title>30769FA6-0BBB-4CA2-AB91-C806B1891CF8</title>
    <desc>Created with sketchtool.</desc>
    <defs></defs>
    <g id="-Stylesheet-+-Mobile" stroke="none" stroke-width="1" fill="none" fill-rule="evenodd">
        <g id="Assets" transform="translate(-462.000000, -397.000000)" fill="#B7C9D3">
            <g id="ic_full_screen_exit" transform="translate(462.000000, 397.000000)">
                <path d="M9,16 L9,17 L11.293,17 L7.646,20.646 L8.354,21.353 L12,17.706 L12,20 L13,20 L13,16 L9,16 Z M16,11.292 L16,9 L15,9 L15,12 L15,13 L16,13 L18.999,13 L18.999,12 L16.707,12 L20.353,8.353 L19.647,7.646 L16,11.292 Z" id="ic_full_exit"></path>
            </g>
        </g>
    </g>
</svg>
